X:1
T:Title
%%score { 1 | 2 }
L:1/8
M:6/8
K:G
V:1 treble nm="Grand Piano"
V:2 treble 
V:1
 z3 z2[Q:1/4=87] D | GDG BGB |[M:5/8] [Bd]3 [GB]2 |[M:1/8] [GB] | %4
[M:3/4] [FA][FA] [FA][FA] [Fd][FA] | B4- BD | GD GB GB | [DBd]3 [DGB]2 [B,G] | %8
 [CFA][CFA] [CFA][CFA] [DFB][CFA] |[M:5/8] [B,G]-[B,G]- [B,G]3 |[M:1/8] [B,G] | %11
[M:3/4] [EGc][EGc] [EGc][EGc] [EGd][EGc] |[M:5/8] B3 d2 |[M:1/8] B | %14
[M:3/4] [FA][FA] [FA][FA] [Fd][FA] | B4- BD | GD GB GB | [DBd]3 [DGB]2 [B,G] | %18
 [CFA][CFA] [CFA][CFA] [DFB][CFA] |[M:13/8] [B,G]-[B,G]- [B,G]3 z z z z z z z2 |] %20
V:2
 z3 z2 [G,B,] | [G,B,D][G,B,][G,B,D] [G,DG][G,B,D][G,DG] |[M:5/8][K:bass] [G,D]3 [G,D]2 | %3
[M:1/8] [G,D] |[M:3/4] [D,D][D,D] [D,D][D,D] [D,A,][D,D] | [G,DG]4- [G,DG][G,B,] | %6
 [G,B,D][G,B,] [G,B,D][G,DG] [G,B,D][G,DG] | G,3 G,2 G, | D,D, D,D, D,D, |[M:5/8] G,-G,- G,3 | %10
[M:1/8] G, |[M:3/4] C,C, C,C, C,C, |[M:5/8][K:treble] [G,DG]3 [G,B,G]2 |[M:1/8] [G,DG] | %14
[M:3/4][K:bass] [D,D][D,D] [D,D][D,D] [D,A,][D,D] | [G,DG]4- [G,DG][G,B,] | %16
 [G,B,D][G,B,] [G,B,D][G,DG] [G,B,D][G,DG] | G,3 G,2 G, | D,D, D,D, D,D, | %19
[M:13/8] G,-G,- G,3 z z z z z z z2 |] %20

